X: 635
T: Hangman's Reel
C:Tim O'Brien's break
B: jims roots
M:C
L:1/8
Q: 1/4=100
K:A
V:1 
{G}A2- || "A"AEAE "E"BEBE | "A"cAcA "E"BcBc | "A"AEAc "E"BABd | "A"cAcA "E"BcBc |
    "A"AEAc "E"BEBd | "A"cAcA "E"BcBc | "A"AEAc "E"BAFG | FEFG y{G}"A"A2 A2 ||
    "A"EFAc "E"BEBd | "A"cABc "E"dcBc | "A"AEAc "E"BEBd | "A"cABc "E"dcBc |
    "A"AEAc "E"BEBd | "A"cAcA "E"BcBc | "A"AEAc "E"BAFG | FEFG "A"A2cd  ||
    "A"e2c2  ecAc | "E"BGBc dcBA | "A"e2c2 ecAc | "E"B2G2 "A"A2cd |
    "A"ecAc  ecAc | "E"BEGB dcBA | "A"ecBB AEAc | "E"BEGB "A"A2AB ||
% abcbook-tune_id 6298c25da2a71ba9088f8352


% abcbook-boost 0
% abcbook-tablature 
% abcbook-transpose 
% abcbook-lastupdated 1654178398622
% abcbook-soundfonts 
% abcbook-repeats 1


